!!!COM: Palestrina, Giovanni Perluigi da
!!!OPR: Tu es Petrus (1601)
!!!OTL: Gloria
**kern	**kern	**kern	**kern	**kern	**kern
*Ibass	*Itenor	*Itenor	*Icalto	*Icalto	*Icant
!Bassus	!Tenor 2	!Tenor 1	!Altus 2	!Altus 1	!Cantus
*clefF4	*clefGv2	*clefGv2	*clefG2	*clefG2	*clefG2
*k[]	*k[]	*k[]	*k[]	*k[]	*k[]
*G:mix	*G:mix	*G:mix	*G:mix	*G:mix	*G:mix
*M4/2	*M4/2	*M4/2	*M4/2	*M4/2	*M4/2
=1	=1	=1	=1	=1	=1
1r	1d	1r	0r	1r	0r
1G	1B	1d	.	[1g	.
=2	=2	=2	=2	=2	=2
1G	1d	1B	0r	2g]	0r
.	.	.	.	2g	.
2C	2e	2c	.	2g	.
2C	2e	2c	.	2g	.
=3	=3	=3	=3	=3	=3
1.G	2.d	2.B	0r	1.g	0r
.	4c	4c	.	.	.
.	2B	2d	.	.	.
2E	2c	2e	.	2g	.
=4	=4	=4	=4	=4	=4
2F	2A	2d	0r	2a	0r
2G	2B	2e	.	4g	.
.	.	.	.	4f	.
1A	1c	2e	.	2e	.
.	.	4d	.	2f	.
.	.	4c	.	.	.
=5	=5	=5	=5	=5	=5
1G	2r	2.B	2r	1g	1dd
.	1d	.	1g	.	.
.	.	4A	.	.	.
1r	.	1G	.	1r	1b
.	2e	.	2g	.	.
=6	=6	=6	=6	=6	=6
0r	2f#	0r	2a	0r	2dd
.	2g	.	2b	.	2dd
.	1c	.	1cc	.	1ee
=7	=7	=7	=7	=7	=7
1G	2g	2r	1b	2r	1dd
.	2d	2B	.	2g	.
1E	1e	1B	1r	1g	1r
=8	=8	=8	=8	=8	=8
1D	1f#	1d	1r	1a	1r
1G	2g	2d	2r	1b	2r
.	[2G	[2d	[2g	.	[2b
=9	=9	=9	=9	=9	=9
0r	2G]	2d]	2g]	0r	2b]
.	2G	2d	2g	.	2b
.	2c	2e	2g	.	2cc
.	2e	2e	2g	.	2cc
=10	=10	=10	=10	=10	=10
1r	1d	1f#	1a	1r	1dd
2r	2G	1g	2b	2r	1dd
[2G	[2d	.	[2b	[2g	.
=11	=11	=11	=11	=11	=11
2G]	2d]	0r	2b]	2g]	0r
2G	2d	.	2b	2g	.
2c	2e	.	2cc	2g	.
2A	2c	.	2cc	2f#	.
=12	=12	=12	=12	=12	=12
0G	0d	1r	2b	2g	2r
.	.	.	2b	2g	2dd
.	.	1G	2b	2g	2dd
.	.	.	2b	2g	2dd
=13	=13	=13	=13	=13	=13
1C	2r	2G	1cc	2e	2.gg
.	2e	2G	.	4c	.
.	.	.	.	4d	4ff
2C	2e	1c	[1g	4e	1ee
.	.	.	.	4f	.
2C	2c	.	.	4g	.
.	.	.	.	4a	.
=14	=14	=14	=14	=14	=14
1G	1d	1B	1g]	4b	0dd
.	.	.	.	4a	.
.	.	.	.	1g	.
1D	1d	1A	1a	.	.
.	.	.	.	2f#	.
=15	=15	=15	=15	=15	=15
0G	4d	2.G	1b	0g	1dd
.	4c	.	.	.	.
.	4B	.	.	.	.
.	4A	4A	.	.	.
.	2G	2.B	2r	.	2r
.	[2g	.	[2b	.	[2dd
.	.	4c	.	.	.
=16	=16	=16	=16	=16	=16
0r	2g]	1d	2b]	0r	2dd]
.	2f	.	2a	.	2dd
.	2e	1r	2g	.	1cc
.	[2f	.	[2a	.	.
=17	=17	=17	=17	=17	=17
0r	2f]	1r	2a]	0r	2dd
.	2e	.	2g	.	2ee
.	2d	2r	2a	.	2ff
.	2c	[2g	2cc	.	2ee
=18	=18	=18	=18	=18	=18
0r	1d	2g]	2b	0r	1dd
.	.	2f	4a	.	.
.	.	.	4g	.	.
.	2.A	2e	2a	.	[1cc
.	.	[2f	[2a	.	.
.	4B	.	.	.	.
=19	=19	=19	=19	=19	=19
0r	2c	2f]	2a]	0r	2cc]
.	2c	2e	2g	.	2cc
.	2G	2d	2g	.	2b
.	2A	2c	2f#	.	2a
=20	=20	=20	=20	=20	=20
2r	2G	2d	1g	2r	2b
1G	1d	1B	.	1g	1dd
.	.	.	1r	.	.
2E	2g	2B	.	2g	2ee
=21	=21	=21	=21	=21	=21
1D	4f	1d	0r	1a	1ff
.	4g	.	.	.	.
.	4a	.	.	.	.
.	4f	.	.	.	.
1C	1g	1e	.	[1cc	2ee
.	.	.	.	.	2ee
=22	=22	=22	=22	=22	=22
1c	2e	1g	0r	1cc]	2ee
.	2e	.	.	.	2.gg
2B	2d	2g	.	2r	.
.	.	.	.	.	4ff
2c	2e	2g	.	2cc	[2ee
=23	=23	=23	=23	=23	=23
1d	4f	2.f	0r	2a	4ee]
.	4g	.	.	.	4dd
.	2.a	.	.	2f	1dd
.	.	4d	.	.	.
1A	.	1e	.	1a	.
.	4g	.	.	.	.
.	2e	.	.	.	2cc#
=24	=24	=24	=24	=24	=24
0D	2f#	0d	2r	1a	1dd
.	2.f#	.	2.a	.	.
.	.	.	.	1r	2r
.	4f#	.	4a	.	.
.	2f#	.	2a	.	[2dd
=25	=25	=25	=25	=25	=25
0r	1g	0r	1b	0r	4dd]
.	.	.	.	.	4dd
.	.	.	.	.	2dd
.	2e	.	2g	.	2ee
.	[2f	.	[2a	.	2cc
=26	=26	=26	=26	=26	=26
0r	2f]	1r	2a]	0r	2dd
.	2e	.	2g	.	2ee
.	[1d	2r	2.a	.	4ff
.	.	.	.	.	4ee
.	.	[2f	.	.	4dd
.	.	.	4g	.	4cc
=27	=27	=27	=27	=27	=27
1r	1d]	2f]	2a	1r	1dd
.	.	2f	2b	.	.
2r	2c	2.g	[1cc	2r	[1ee
[2c	[2e	.	.	2g	.
.	.	4f	.	.	.
=28	=28	=28	=28	=28	=28
2c]	2e]	2e	1cc]	2g	1ee]
2c	2e	2A	.	1a	.
1d	2f	1a	1r	.	1r
.	[2d	.	.	2f	.
=29	=29	=29	=29	=29	=29
2B	2d]	4g	0r	1g	0r
.	.	4f	.	.	.
2c	1e	4e	.	.	.
.	.	4d	.	.	.
2c	.	2c	.	2a	.
2B	[2g	2d	.	2b	.
=30	=30	=30	=30	=30	=30
1A	2g]	2e	1r	2cc	1r
.	2f#	4d	.	4b	.
.	.	4c	.	4a	.
1G	1g	2d	2r	1b	2r
.	.	[2g	[2b	.	[2dd
=31	=31	=31	=31	=31	=31
0r	0r	4g]	4b]	0r	4dd]
.	.	4g	4b	.	4dd
.	.	2g	2b	.	2ee
.	.	2.a	2.cc	.	2ff
.	.	.	.	.	2ee
.	.	4g	4b	.	.
=32	=32	=32	=32	=32	=32
1r	0r	2f	2a	0r	2dd
.	.	2e	2g	.	2cc
2r	.	2d	2a	.	2ff
[2A	.	2c	2cc	.	[2ee
=33	=33	=33	=33	=33	=33
4A]	1r	2f	2cc	1r	2ee]
4A	.	.	.	.	.
2B	.	2f	4b	.	2dd
.	.	.	4a	.	.
[1c	2r	1e	4g	2r	1ee
.	.	.	4f	.	.
.	[2e	.	4e	[2g	.
.	.	.	4d	.	.
=34	=34	=34	=34	=34	=34
2c]	4e]	1r	2c	4g]	0r
.	4e	.	.	4g	.
2A	2f	.	2c	2a	.
2.G	2g	2r	1d	2.b-	.
.	[2G	[2d	.	.	.
4A	.	.	.	4a	.
=35	=35	=35	=35	=35	=35
2.B-	2G]	2d]	0r	2g	0r
.	2d	2f	.	2f	.
4A	.	.	.	.	.
2G	2d	2g	.	2b-	.
2F	[2f	2c	.	2a	.
=36	=36	=36	=36	=36	=36
2B-	2f]	1d	0r	2f	0r
2B-	2d	.	.	2g	.
1A	1c#	1e	.	1a	.
=37	=37	=37	=37	=37	=37
0G	2r	0g	0b	0d	0dd
.	2d	.	.	.	.
.	2G	.	.	.	.
.	[2g	.	.	.	.
=38	=38	=38	=38	=38	=38
1C	4g]	1e	0cc	1g	1ee
.	4f	.	.	.	.
.	4e	.	.	.	.
.	4d	.	.	.	.
[1F	2.c	[1a	.	2.f	2.ff
.	4B	.	.	4g	8ee
.	.	.	.	.	8dd
=39	=39	=39	=39	=39	=39
2F]	[0A	2a]	1.f	1.a	1cc
2E	.	2g	.	.	.
[1D	.	2f	.	.	[1dd
.	.	2e	2g	2g	.
=40	=40	=40	=40	=40	=40
0D]	1A]	0d	0a	2f	2dd]
.	.	.	.	2e	2ee
.	1A	.	.	1d	1ff
=41	=41	=41	=41	=41	=41
1A	2r	2c#	[0a	1e	2ee
.	2.A	2.e	.	.	2.cc#
1r	.	.	.	1r	.
.	4A	4e	.	.	4cc#
.	2A	2e	.	.	2cc#
=42	=42	=42	=42	=42	=42
0r	2d	2f	1a]	2r	2dd
.	2c#	2e	.	2.a	2ee
.	1d	4d	1r	.	1ff
.	.	4e	.	4a	.
.	.	4f	.	2a	.
.	.	4g	.	.	.
=43	=43	=43	=43	=43	=43
0r	2A	2a	0r	2cc	1.ee
.	2e	2g#	.	2b	.
.	2A	1a	.	[1cc	.
.	[2a	.	.	.	[2ff
=44	=44	=44	=44	=44	=44
0r	2a]	1e	0r	2cc]	4ff]
.	.	.	.	.	4ee
.	2g	.	.	2b	1ee
.	1f	2r	.	1a	.
.	.	[2a	.	.	2dd
=45	=45	=45	=45	=45	=45
1r	1e	2a]	2r	1b	1ee
.	.	2g#	2.e	.	.
2r	1A	1a	.	1a	[1cc#
.	.	.	4e	.	.
[2A	.	.	2e	.	.
=46	=46	=46	=46	=46	=46
4A]	2r	1e	2.a	0r	1cc#]
4A	.	.	.	.	.
2A	2.a	.	.	.	.
.	.	.	4g	.	.
2.d	.	2r	4f	.	1r
.	4a	.	4e	.	.
.	2a	2d	2f	.	.
4c	.	.	.	.	.
=47	=47	=47	=47	=47	=47
2B	2.g	2G	2d	2r	0r
1c	.	2g	2.e	2.g	.
.	4f	.	.	.	.
.	2e	2c	.	.	.
.	.	.	4f	4g	.
2B	2d	2d	[2g	2g	.
=48	=48	=48	=48	=48	=48
1A	1c	2e	2g]	1cc	1r
.	.	2A	2f#	.	.
[1G	1d	2r	[1g	[1b	2r
.	.	[2B	.	.	[2dd
=49	=49	=49	=49	=49	=49
1G]	2r	4B]	0g]	1b]	4dd]
.	.	4B	.	.	4dd
.	2.G	2B	.	.	2dd
1C	.	2.e	.	2r	2.gg
.	4G	.	.	.	.
.	2G	.	.	[2g	.
.	.	4d	.	.	4ff
=50	=50	=50	=50	=50	=50
1.C	2.c	4e	1r	4g]	4ee
.	.	4f	.	4g	4dd
.	.	2g	.	2g	2.ee
.	4d	.	.	.	.
.	2e	1G	2r	2cc	.
.	.	.	.	.	4cc
2G	2d	.	[2g	2b	2dd
=51	=51	=51	=51	=51	=51
0C	0c	1.G	4g]	2.cc	0ee
.	.	.	4g	.	.
.	.	.	2g	.	.
.	.	.	.	8b	.
.	.	.	.	8a	.
.	.	.	1cc	1g	.
.	.	2A	.	.	.
=52	=52	=52	=52	=52	=52
0G	0d	0B	0b	0g	0dd
=53	=53	=53	=53	=53	=53
0r	0r	0r	1r	0r	1dd
.	.	.	2r	.	1dd
.	.	.	2g	.	.
=54	=54	=54	=54	=54	=54
0r	0r	0r	1g	0r	1b
.	.	.	2e	.	1cc
.	.	.	2f#	.	.
=55	=55	=55	=55	=55	=55
0r	0r	0r	1g	1r	1b
.	.	.	2e	2r	2g
.	.	.	[2c	2g	4cc
.	.	.	.	.	4dd
=56	=56	=56	=56	=56	=56
2r	0r	0r	4c]	1g	4ee
.	.	.	4d	.	4ff
2c	.	.	4e	.	2.gg
.	.	.	4f	.	.
1c	.	.	2g	1e	.
.	.	.	.	.	4ff
.	.	.	[2cc	.	[2ee
=57	=57	=57	=57	=57	=57
2A	0r	0r	2cc]	1f	2ee]
2B	.	.	4b	.	2dd
.	.	.	4a	.	.
1c	.	.	2g	1e	[1ee
.	.	.	2g	.	.
=58	=58	=58	=58	=58	=58
2A	0r	0r	1a	2c	2ee]
2.F	.	.	.	4f	2a
.	.	.	.	4g	.
.	.	.	2f	4a	2.cc
4G	.	.	.	4b	.
4A	.	.	2f	[2cc	.
4B	.	.	.	.	4dd
=59	=59	=59	=59	=59	=59
2.c	0r	0r	2e	4cc]	2ee
.	.	.	.	4b	.
.	.	.	2c	1a	2ee
4A	.	.	.	.	.
1B-	.	.	1d	.	1dd
.	.	.	.	2g	.
=60	=60	=60	=60	=60	=60
2A	2r	1r	2e	1a	1cc
1F	1f	.	1a	.	.
.	.	[1c	.	1r	2r
2E	2g	.	2g	.	[2cc
=61	=61	=61	=61	=61	=61
1F	1a	1c]	1f	2r	2cc]
.	.	.	.	2f	2dd
4C	2g	1c	2e	1g	1ee
4D	.	.	.	.	.
4E	[2G	.	4g	.	.
4F	.	.	4a	.	.
=62	=62	=62	=62	=62	=62
0G	4G]	0B	4b	1g	2dd
.	4A	.	4cc	.	.
.	4B	.	4dd	.	2.g
.	4c	.	4cc	.	.
.	[1d	.	4b	1g	.
.	.	.	4a	.	4a
.	.	.	[2g	.	4b
.	.	.	.	.	4cc
=63	=63	=63	=63	=63	=63
0D	0d]	0A	2g]	0a	0dd
.	.	.	4f#	.	.
.	.	.	4e	.	.
.	.	.	1f#	.	.
=64	=64	=64	=64	=64	=64
0C	0G	0c	2.g	2.e	0ee
.	.	.	4f	4f	.
.	.	.	4e	[1g	.
.	.	.	4d	.	.
.	.	.	2c	.	.
=65	=65	=65	=65	=65	=65
0G	2r	1B	2d	0g]	0dd
.	2d	.	2B	.	.
.	1d	2r	2.B	.	.
.	.	2g	.	.	.
.	.	.	4c	.	.
=66	=66	=66	=66	=66	=66
1G	1B	1g	2d	0r	0r
.	.	.	1e	.	.
1A	1c	2e	.	.	.
.	.	2f	4d	.	.
.	.	.	4c	.	.
=67	=67	=67	=67	=67	=67
1G	1B	2g	0d	1r	2r
.	.	2.G	.	.	2dd
1r	[1G	.	.	2r	1dd
.	.	4A	.	.	.
.	.	4B	.	2g	.
.	.	4c	.	.	.
=68	=68	=68	=68	=68	=68
0r	1G]	2d	0r	1g	1b
.	.	1e	.	.	.
.	1A	.	.	2e	1cc
.	.	4d	.	2f	.
.	.	4c	.	.	.
=69	=69	=69	=69	=69	=69
2r	1G	2.d	0r	1g	0b
2G	.	.	.	.	.
.	.	4c	.	.	.
1G	1r	4B	.	2d	.
.	.	4A	.	.	.
.	.	[2B	.	[2g	.
=70	=70	=70	=70	=70	=70
1E	2r	2B]	0r	4g]	1g
.	.	.	.	4f	.
.	2c	2c	.	2.e	.
1F	2c	1A	.	.	1a
.	.	.	.	8d	.
.	.	.	.	8c	.
.	2A	.	.	2d	.
=71	=71	=71	=71	=71	=71
1E	1B	2r	2r	1e	1g
.	.	2e	2g	.	.
[1C	4c	2.e	1g	2r	2r
.	4d	.	.	.	.
.	4e	.	.	[2g	2cc
.	4f	4d	.	.	.
=72	=72	=72	=72	=72	=72
1C]	2g	4c	1e	2g]	1cc
.	.	4B	.	.	.
.	2e	4A	.	1a	.
.	.	4G	.	.	.
1D	1d	2F	1f	.	2a
.	.	2F	.	2f	2b
=73	=73	=73	=73	=73	=73
1C	2.e	1G	2e	2r	2cc
.	.	.	2c	1cc	2ee
.	4f	.	.	.	.
1r	1g	1G	1d	.	1dd
.	.	.	.	2b	.
=74	=74	=74	=74	=74	=74
1.G	2r	1.B	2d	2r	2dd
.	1d	.	1g	1b	1dd
2G	2d	2B	2g	2b	2dd
=75	=75	=75	=75	=75	=75
0G	2.B	2.d	2.g	2.b	0dd
.	4c	4c	4a	4a	.
.	1d	4B	1b	2.g	.
.	.	4A	.	.	.
.	.	2G	.	.	.
.	.	.	.	4f	.
=76	=76	=76	=76	=76	=76
1.C	1.c	1.g	1.cc	2e	1.ee
.	.	.	.	1e	.
2C	2c	2g	2cc	2c	2ee
=77	=77	=77	=77	=77	=77
2C	2c	2e	2g	2cc	2ee
2C	2c	2e	2g	2cc	2ee
1G	1d	1d	1g	1b	1gg
=78	=78	=78	=78	=78	=78
1C	1c	1.e	0g	1cc	2ee
.	.	.	.	.	2.gg
2.E	2.G	.	.	[1b	.
.	.	.	.	.	4ff
.	.	[2g	.	.	2ee
4F	4A	.	.	.	.
=79	=79	=79	=79	=79	=79
0G	2B	4g]	0g	2b]	2dd
.	.	4f	.	.	.
.	2c	2e	.	2.g	1cc
.	2d	1d	.	.	.
.	.	.	.	4f	.
.	[2G	.	.	2d	2b
=80	=80	=80	=80	=80	=80
1C	2G]	0c	1g	0e	[0cc
.	2g	.	.	.	.
2r	2.g	.	1r	.	.
2c	.	.	.	.	.
.	4f	.	.	.	.
=81	=81	=81	=81	=81	=81
1c	4e	2r	0r	0r	1cc]
.	4d	.	.	.	.
.	2e	2g	.	.	.
2B	2d	2g	.	.	1r
2A	2a	[2f	.	.	.
=82	=82	=82	=82	=82	=82
1.c	2.g	2f]	1r	0r	0r
.	.	2e	.	.	.
.	4f	.	.	.	.
.	2e	1g	2r	.	.
2B	2d	.	2g	.	.
=83	=83	=83	=83	=83	=83
2.A	2.c	2f	1a	0r	2r
.	.	2.e	.	.	2cc
4B	4d	.	.	.	.
1c	1e	.	2g	.	1cc
.	.	4f	.	.	.
.	.	[2g	2e	.	.
=84	=84	=84	=84	=84	=84
1d	0r	2g]	2.f	1r	2b
.	.	2.f	.	.	2a
.	.	.	4f	.	.
2.c	.	.	1g	2r	[1cc
.	.	4e	.	.	.
.	.	4e	.	2g	.
8B	.	8d	.	.	.
8A	.	8c	.	.	.
=85	=85	=85	=85	=85	=85
1G	0r	1d	1r	1g	2cc]
.	.	.	.	.	2b
1A	.	1c	2r	2f	1a
.	.	.	[2cc	2e	.
=86	=86	=86	=86	=86	=86
1G	0r	0r	2cc]	1.g	2.dd
.	.	.	4b	.	.
.	.	.	4a	.	4cc
1r	.	.	2b	.	4dd
.	.	.	.	.	4ee
.	.	.	[2a	2f	2dd
=87	=87	=87	=87	=87	=87
0r	0r	0r	4a]	1e	4cc
.	.	.	4g	.	4b
.	.	.	1g	.	4b
.	.	.	.	.	8a
.	.	.	.	.	8g
.	.	.	.	1d	1a
.	.	.	2f#	.	.
=88	=88	=88	=88	=88	=88
1.C	1r	1.c	2g	2e	2g
.	.	.	1g	1e	1cc
.	[1G	.	.	.	.
2C	.	2c	2g	2e	2cc
=89	=89	=89	=89	=89	=89
1G	2G]	1B	1.g	1d	1dd
.	2G	.	.	.	.
1E	2B	1G	.	1g	1ee
.	2c	.	2e	.	.
=90	=90	=90	=90	=90	=90
0D	0d	0A	2r	2.f	0ff
.	.	.	4a	.	.
.	.	.	4g	4g	.
.	.	.	4f	1a	.
.	.	.	4e	.	.
.	.	.	2d	.	.
=91	=91	=91	=91	=91	=91
2A	2c#	2A	1e	1a	0ee
1A	1e	1c	.	.	.
.	.	.	1r	1r	.
2G	2e	2B	.	.	.
=92	=92	=92	=92	=92	=92
2E	2e	2G	0r	0r	0r
2G	2e	2B	.	.	.
2F	2d	2A	.	.	.
2E	2c	2G	.	.	.
=93	=93	=93	=93	=93	=93
1F	1d	1A	2r	1r	1r
.	.	.	1a	.	.
[1E	[1e	1B	.	2.b	2.ee
.	.	.	2g	.	.
.	.	.	.	4b	4ee
=94	=94	=94	=94	=94	=94
1E]	1e]	0r	2e	2b	2ee
.	.	.	2g	2b	2ee
1r	1r	.	2f	2a	2dd
.	.	.	2e	2g	2cc
=95	=95	=95	=95	=95	=95
1r	2r	0r	1f	1a	1dd
.	2a	.	.	.	.
2r	2g	.	1e	2b	1ee
2A	2e	.	.	2cc	.
=96	=96	=96	=96	=96	=96
2G	1.g	2r	0r	2b	0r
2E	.	2e	.	2g	.
1G	.	2d	.	2.b	.
.	2G	2B	.	.	.
.	.	.	.	4b	.
=97	=97	=97	=97	=97	=97
1F	1A	2c	2r	1a	1r
.	.	2d	2a	.	.
1E	1B	1e	2g	2r	2r
.	.	.	2e	2g	2ee
=98	=98	=98	=98	=98	=98
0r	0r	1r	1g	2.b	2dd
.	.	.	.	.	2b
.	.	.	.	4b	.
.	.	2r	1f	2a	2cc
.	.	[2a	.	2a	2dd
=99	=99	=99	=99	=99	=99
1E	1B	4a]	1e	1b	2ee
.	.	4g#	.	.	.
.	.	2g#	.	.	2ee
1A	1c#	2.a	2r	1e	1ee
.	.	.	2e	.	.
.	.	4g	.	.	.
=100	=100	=100	=100	=100	=100
2D	0d	2f	1a	1f	0dd
2d	.	2d	.	.	.
[1f	.	2r	2d	1a	.
.	.	2a	2dd	.	.
=101	=101	=101	=101	=101	=101
2f]	1r	2a	2dd	1r	2r
2e	.	2g	2cc#	.	2gg
1d	2r	1a	[1dd	2r	2gg
.	2d	.	.	2a	2ff#
=102	=102	=102	=102	=102	=102
1r	2.g	2r	1dd]	2b	1gg
.	.	2g	.	2b	.
.	4g	.	.	.	.
[1c	4g	4e	[1g	1cc	[1gg
.	4f	4f	.	.	.
.	4e	4g	.	.	.
.	4d	4f	.	.	.
=103	=103	=103	=103	=103	=103
1c]	4c	4e	1g]	1cc	1gg]
.	4d	4d	.	.	.
.	2e	4c	.	.	.
.	.	4B	.	.	.
1F	2c	2A	1a	[1cc	1ff
.	2A	4c	.	.	.
.	.	4d	.	.	.
=104	=104	=104	=104	=104	=104
[0C	2.c	4e	1g	2cc]	1.ee
.	.	4f	.	.	.
.	.	1g	.	1c	.
.	4d	.	.	.	.
.	2e	.	[1cc	.	.
.	2f	2f	.	2d	2dd
=105	=105	=105	=105	=105	=105
0C]	1g	2e	0cc]	2e	2cc
.	.	2d	.	2f	2dd
.	2.G	1c	.	1g	1ee
.	4A	.	.	.	.
=106	=106	=106	=106	=106	=106
0G	0B	1d	1b	2g	2dd
.	.	.	.	2d	1dd
.	.	2r	2r	2.g	.
.	.	2G	2g	.	[2gg
.	.	.	.	4f	.
=107	=107	=107	=107	=107	=107
0r	0r	1.c	2.g	4e	4gg]
.	.	.	.	4d	4ff
.	.	.	.	2c	4ee
.	.	.	4f	.	4dd
.	.	.	2e	1g	2cc
.	.	2B	2d	.	[2dd
=108	=108	=108	=108	=108	=108
1r	1r	2A	2e	2a	2dd]
.	.	2A	4d	2f	1cc
.	.	.	4c	.	.
2r	2r	1G	2d	1g	.
2G	2g	.	2d	.	2b
=109	=109	=109	=109	=109	=109
1.c	2.g	2r	1c	2.e	1cc
.	.	4c	.	.	.
.	4f	4d	.	4f	.
.	2e	4e	1r	4g	1r
.	.	4f	.	4a	.
2B	2d	[2g	.	4b	.
.	.	.	.	4g	.
=110	=110	=110	=110	=110	=110
2A	2e	2g]	0r	4a	0r
.	.	.	.	4b	.
2A	4d	2f#	.	1cc	.
.	4c	.	.	.	.
1G	2d	[1g	.	.	.
.	2d	.	.	2b	.
=111	=111	=111	=111	=111	=111
2r	0c	0g]	2r	1cc	2r
2C	.	.	2cc	.	2ee
2.C	.	.	2.cc	2r	2.ee
.	.	.	.	2g	.
4C	.	.	4cc	.	4ee
=112	=112	=112	=112	=112	=112
1G	0r	0r	2b	2.g	2dd
.	.	.	2g	.	2b
.	.	.	.	4g	.
1r	.	.	2a	2f	2cc
.	.	.	2b	2d	2dd
=113	=113	=113	=113	=113	=113
0r	0r	0r	2cc	2e	2g
.	.	.	2.a	2f	2.cc
.	.	.	.	2g	.
.	.	.	4g	.	4b
.	.	.	[2g	2e	4b
.	.	.	.	.	8a
.	.	.	.	.	8g
=114	=114	=114	=114	=114	=114
1r	1r	1r	2g]	1d	1a
.	.	.	2f#	.	.
2r	2r	2r	[1g	1e	2g
2C	2c	2e	.	.	2cc
=115	=115	=115	=115	=115	=115
2.C	2.c	2.e	1g]	2r	2.cc
.	.	.	.	2g	.
4C	4c	4e	.	.	4cc
2G	2B	2d	1r	2.g	2dd
2G	2G	2B	.	.	[2dd
.	.	.	.	4g	.
=116	=116	=116	=116	=116	=116
2D	2A	1d	2r	2f	2dd]
2G	2B	.	2g	2d	2dd
1C	4c	1c	2.g	2e	1gg
.	4d	.	.	.	.
.	4e	.	.	2e	.
.	4d	.	4g	.	.
=117	=117	=117	=117	=117	=117
1F	4c	1A	2a	2f	2.ff
.	4B	.	.	.	.
.	2A	.	2cc	2.a	.
.	.	.	.	.	4ee
1G	[1d	1B	2b	.	1dd
.	.	.	.	4g	.
.	.	.	2g	[2g	.
=118	=118	=118	=118	=118	=118
0D	0d]	0A	1a	2g]	0dd
.	.	.	.	4f#	.
.	.	.	.	4e	.
.	.	.	1a	1f#	.
=119	=119	=119	=119	=119	=119
0G	0d	0G	0b	0g	0dd
==	==	==	==	==	==
*-	*-	*-	*-	*-	*-
!!!CDT: 1525/^1526/-1594/2/2
!!!OCY: Italia
!!!AGN: Mass (Paraphrase)
!!!AST: renaissance, vocal
!!!ASW: Antiphon
!!!PWK: Masses, Book 12
!!!RNB: Cadence finals: C
!!!YOR: Le Opere Complete, v. 29, p. 123
!!!YOO: Rome, Italy: Fratelli Scalera
!!!END: 1992//
!!!EED: John Miller
!!!YEC: Copyright 2000, John Miller
!!!YEN: United States of America
!!!YEM: Rights to all derivative electronic formats reserved.
!!!YEM: Refer to licensing agreement for further details.
!!!YEM: This file must be accompanied by the licensing agreement.
!!!YEM: A copy of the licensing agreement may be found at http://www.music-cog.ohio-state.edu/HumdrumDatabases/Palestrina/license.txt
!!!EMD: converted to Humdrum by Bret Aarden
